X:1
T:Ung cueur vivant
T:Antoine de Mornable
T:Source : Livre V de 25 chansons nouvelles à 4 parties---Paris---P.Attaingnant---1540. Editor : André Vierendeels (08/05/18) Notes : Original clefs : G2, C2, C3, F3 Original note values have been halved Editorial accidentals above the staff Square brackets indicate ligatures
T:#
T:Ung cueur vivant
T:©
T:©
T:©
T:©
T:©
C:Antoine de Mornable
Z:©
%%score [ 1 2 3 4 ]
L:1/8
Q:1/4=120
M:2/2
K:C
V:1 treble nm="Soprano" snm="S"
V:2 treble nm="Alto 1" snm="A 1"
V:3 treble nm="Alto 2" snm="A 2"
V:4 bass nm="Bass" snm="B"
V:1
 A4 d2 d2 | c2 d2 f2 f2 | e3 d c2 B2- | BA A4 G2 | A4 e4 | f2 f2 e2 c2 | f3 e d2 c2 | %7
w: Ung cueur vi-|vant en lan- gou-|reux _ _ de-||sir, doibt|e- vi- ter le|lieu trop fa- vo-|
 B2 AB cd e2- |"^#" ed d4 c2 | d2 A2 d2 d2 | c4 A4 | A2 B2 c3 B | AG B3 A A2- | A2 G2 A2 c2 | %14
w: ra- * * * * *||ble, et ten- dre'aux|fins pour|bien et tout _|_ _ _ _ plai-|* * sir, et|
 d4 d4 | e2 c2 f4- | f2 e2 d2 d2 | c4 z4 | z2 A2 c4 | d4 c2 A2 | c3 d e2 d2- | d2 c2 B2 AB | %22
w: ten- dre'aux|fins pour bien|_ et tout plai-|sir,|cher- chant|les gens de|fa- çon a- my-|* a- * * *|
 cdec de f2- | fe e3 d d2- | d2 c2 d4 | z4 z2 A2 | c4 d4 | c2 A2 c3 d | e2 d4 c2 | B2 AB cdec | %30
w: ||* * ble,|cher-|chant les|gens de fa- çon|a- my- a-||
 de f3 e e2- | ed d4 c2 | d8 |] %33
w: ||ble.|
V:2
 F4 A2 A2 | A4 z2 A2 | A6 G2 | GFED E2 E2 | C4 A4 | A2 B2 c4 | A4 A2 A2 | G2 A4 E2 | G4 A4 | %9
w: Ung cueur vi-|vant en|lan- gou-|reux _ _ _ _ de-|sir, doibt|e- vi- ter|le lieu trop|fa- vo- ra-||
 F2 F2 F2 D2 | A4 F4 | F2 F2 C2 CD | EF G2 E2 z E | E2 E2 C2 C2 | F3 E D2 D2 | C4 A,2 D2 | C4 A,4 | %17
w: ble, et ten- dre'aux|fins pour|bien et tout plai- *|* * * sir, et|ten- dre'aux fins pour|bien et tout plai-|sir, et tout|plai- sir,|
 z2 A,2 C2 D2 | E2 F2 E2 A2- | A2 G2 A4- | A4 z2 A,2 | B,2 C2 D4 | C2 C2 F3 G | A4 B2 G2 | %24
w: cher- chant les|gens, _ _ _|_ _ _|* cher-|chant _ les|gens de fa- çon|a- my- a-|
 A4 z2 A,2 | C2 D2 E2 F2 | E2 A4 G2 | A8 | z2 A,2 B,2 C2 | D4 C2 C2 | F3 G A4 | B2 G2 A4 | A8 |] %33
w: ble, cher-|chant les gens, _|_ _ _||cher- chant _|les gens de|fa- çon a-|my- * a-|ble.|
V:3
 D4 F2 F2 | E2 A,2 D2 D2 | CB,CD E2 E2 | DCB,A, B,2 B,2 | A,4 C4 | D2 D2 E4 | z2 F2 F2 F2 | %7
w: Ung cueur vi-|vant, ung cueur vi-|vant _ _ _ _ en|lan- * gou- * reux de-|sir, doibt|e- vi- ter|le lieu trop|
 D2 F2 E2 DC | D4 E4 | D4 z2 F2 | F2 F2 C2 C2 | D2 D2 E4- | E2 D2 C2 B,A, | B,4 A,2 A,2 | D4 F4 | %15
w: fa- vo- ra- * *||ble, et|ten- dre'aux fins pour|bien et tout|_ plai- * * *|* sir, et|ten- dre'aux|
 E2 A2 A4- | A2 G2 F2 F2 | E4 z2 A,2 | C2 D2 E2 F2- | F2 ED E4 | z2 A,2 C2 D2 | E4 F4- | %22
w: fins pour bien|_ et tout plai-|sir, cher-|chant les gens, _|_ _ _ _|de fa- çon|a- my|
 F2 E3 D D2- | D2 C2 D4 | E4 D4 | z2 A,2 C2 D2 | E2 F4 ED | E4 z2 A,2 | C2 D2 E4 | F6 E2- | %30
w: _ a- * *||* ble,|cher- chant les|_ _ _ _|gens de|fa- çon _|a- *|
 ED D4 C2 | D4 E4 | D8 |] %33
w: ||ble.|
V:4
 D,4 D,2 D,2 | A,,2 D,2 D,E,F,G, | A,2 A,,B,, C,D,E,F, | G,2 A,2 E,4 | A,,4 A,4 | F,2 D,2 A,4 | %6
w: Ung cueur vi-|vant en lan- * * *|* gou- * * * * *|* reux de-|sir, doibt|e- vi- ter|
 z2 D,2 F,2 F,2 | G,2 D,2 A,4 | G,2 B,2 A,4 | D,8 | z2 F,2 F,2 F,2 | D,2 D,2 A,3 B, | %12
w: le lieu trop|fa- vo- ra-||ble,|et ten- dre'aux|fins pour bien _|
 C2 G,2 A,2 A,2 | E,4 z4 | D,4 D,2 D,2 | A,,2 A,,2 D,3 E, | F,2 C,2 D,2 D,2 | A,,4 z2 F,2 | %18
w: _ et tout plai-|sir,|et ten- dre'aux|fins pour bien _|_ et tout plai-|sir, cher-|
 E,2 D,2 A,4 | B,4 A,4 | z2 A,2 A,2 F,2 | G,2 A,2 D,E,F,G, | A,B,CA, B,2 A,G, | F,2 A,2 G,2 B,2 | %24
w: chant les _|_ gens|de fa- çon|a- my- a- * * *|||
 A,4 D,4 | z2 F,2 E,2 D,2 | A,4 B,4 | A,4 z2 A,2 |"^#" A,2 F,2 G,2 A,2 | D,E,F,G, A,B,CA, | %30
w: * ble,|cher- chant les-||gens de|fa- çon a- my-|a- * * * * * * *|
 B,2 A,G, F,2 A,2 | G,2 B,2 A,4 | D,8 |] %33
w: ||ble.|

